public/icons/admin/import.svg

<svg width="15" height="19" viewBox="0 0 15 19" fill="none" xmlns="http://www.w3.org/2000/svg">
<path d="M4.37504 0.125L0.208374 4.28125H3.33337V11.5833H5.41671V4.28125H8.54171L4.37504 0.125ZM11.6667 14.7188V7.41667H9.58337V14.7188H6.45837L10.625 18.875L14.7917 14.7188H11.6667Z" fill="white"/>
</svg>

<svg xmlns="http://www.w3.org/2000/svg" fill="none" viewBox="0 0 15 19"><path fill="#fff" d="M4.38.13.2 4.28h3.12v7.3h2.09v-7.3h3.12L4.38.12Zm7.29 14.59v-7.3H9.58v7.3H6.46l4.17 4.15 4.16-4.15h-3.12Z"/></svg>
